img/app.svg

<?xml version="1.0" encoding="UTF-8" standalone="no"?>
<!-- Generator: Adobe Illustrator 16.0.0, SVG Export Plug-In . SVG Version: 6.00 Build 0)  -->

<svg
   xmlns:dc="http://purl.org/dc/elements/1.1/"
   xmlns:cc="http://creativecommons.org/ns#"
   xmlns:rdf="http://www.w3.org/1999/02/22-rdf-syntax-ns#"
   xmlns:svg="http://www.w3.org/2000/svg"
   xmlns="http://www.w3.org/2000/svg"
   xmlns:sodipodi="http://sodipodi.sourceforge.net/DTD/sodipodi-0.dtd"
   xmlns:inkscape="http://www.inkscape.org/namespaces/inkscape"
   version="1.1"
   id="Layer_1"
   x="0px"
   y="0px"
   width="512px"
   height="512px"
   viewBox="0 0 512 512"
   enable-background="new 0 0 512 512"
   xml:space="preserve"
   inkscape:version="0.92.3 (2405546, 2018-03-11)"
   sodipodi:docname="app.svg"><metadata
     id="metadata9"><rdf:RDF><cc:Work
         rdf:about=""><dc:format>image/svg+xml</dc:format><dc:type
           rdf:resource="http://purl.org/dc/dcmitype/StillImage" /></cc:Work></rdf:RDF></metadata><defs
     id="defs7" /><sodipodi:namedview
     pagecolor="#ffffff"
     bordercolor="#666666"
     borderopacity="1"
     objecttolerance="10"
     gridtolerance="10"
     guidetolerance="10"
     inkscape:pageopacity="0"
     inkscape:pageshadow="2"
     inkscape:window-width="1627"
     inkscape:window-height="951"
     id="namedview5"
     showgrid="false"
     inkscape:zoom="1.3037281"
     inkscape:cx="146.6106"
     inkscape:cy="297.31477"
     inkscape:window-x="0"
     inkscape:window-y="0"
     inkscape:window-maximized="0"
     inkscape:current-layer="Layer_1" /><path
     style="opacity:1;fill:#ffffff;fill-opacity:1;stroke:#000000;stroke-width:0.87800002;stroke-linecap:butt;stroke-miterlimit:4;stroke-dasharray:none;stroke-dashoffset:0;stroke-opacity:1"
     d="M 250.45079,509.24858 C 232.10207,500.07962 192.40675,454.55414 156.32767,401.30133 110.63179,333.85411 79.168525,268.76261 69.096695,220.8371 66.010513,206.15189 65.238504,185.37191 67.187436,169.44602 72.467985,126.29547 91.450985,87.289396 122.07332,56.667063 144.08693,34.653457 169.56347,18.997898 198.68069,9.5911588 c 20.07226,-6.48463 36.32789,-8.96099902 58.799,-8.95739002 15.82056,0.0025 25.20235,0.87869302 38.58779,3.60365502 29.27974,5.9606702 57.25814,19.1024522 81.56571,38.3123622 7.16255,5.660455 23.62029,22.091106 29.14775,29.099766 27.68995,35.110068 42.05754,75.520398 42.11426,118.450638 0.0195,14.72113 -1.17042,24.05266 -5.0755,39.80466 -11.10768,44.80527 -40.59037,104.78432 -81.74458,166.29964 -43.60715,65.18186 -89.02708,115.3374 -104.44742,115.3374 -1.42318,0 -4.65279,-1.03199 -7.17691,-2.29331 z m 17.32829,-189.48636 c 45.4822,-4.02553 84.13475,-30.21804 104.50975,-70.81996 14.09646,-28.09048 17.18704,-60.24088 8.76327,-91.16176 C 368.69305,112.41456 330.53692,76.372324 284.59372,66.666021 261.61484,61.81133 239.49305,63.063422 217.1344,70.484217 150.0125,92.761846 113.52557,165.5749 135.92712,232.54085 c 14.25716,42.61957 49.88481,74.72409 93.7963,84.52101 14.09633,3.14498 24.60623,3.89074 38.05566,2.70036 z"
     id="path3333"
     inkscape:connector-curvature="0" /><rect
     style="opacity:1;fill:#ffffff;fill-opacity:1;stroke:#000000;stroke-width:0;stroke-linecap:round;stroke-linejoin:round;stroke-miterlimit:4;stroke-dasharray:none;stroke-opacity:1"
     id="rect812"
     width="41.419682"
     height="123.492"
     x="171.04794"
     y="140.75694" /><rect
     style="opacity:1;fill:#ffffff;fill-opacity:1;stroke:#000000;stroke-width:0;stroke-linecap:round;stroke-linejoin:round;stroke-miterlimit:4;stroke-dasharray:none;stroke-opacity:1"
     id="rect812-3"
     width="41.419682"
     height="151.87215"
     x="238.3549"
     y="111.60978" /><rect
     style="opacity:1;fill:#ffffff;fill-opacity:1;stroke:#000000;stroke-width:0;stroke-linecap:round;stroke-linejoin:round;stroke-miterlimit:4;stroke-dasharray:none;stroke-opacity:1"
     id="rect812-6"
     width="41.419682"
     height="98.946999"
     x="306.04541"
     y="164.72668" /></svg>

<svg width="512px" height="512px" fill="#fff" enable-background="new 0 0 512 512" version="1.1" viewBox="0 0 512 512" xml:space="preserve" xmlns="http://www.w3.org/2000/svg">
	<g>
		<path d="m250.45 509.25c-18.349-9.169-58.044-54.694-94.123-107.95-45.696-67.447-77.159-132.54-87.231-180.46-3.0862-14.685-3.8582-35.465-1.9093-51.391 5.2805-43.151 24.264-82.157 54.886-112.78 22.014-22.014 47.49-37.669 76.607-47.076 20.072-6.4846 36.328-8.961 58.799-8.9574 15.821 0.0025 25.202 0.87869 38.588 3.6037 29.28 5.9607 57.258 19.102 81.566 38.312 7.1626 5.6605 23.62 22.091 29.148 29.1 27.69 35.11 42.058 75.52 42.114 118.45 0.0195 14.721-1.1704 24.053-5.0755 39.805-11.108 44.805-40.59 104.78-81.745 166.3-43.607 65.182-89.027 115.34-104.45 115.34-1.4232 0-4.6528-1.032-7.1769-2.2933zm17.328-189.49c45.482-4.0255 84.135-30.218 104.51-70.82 14.096-28.09 17.187-60.241 8.7633-91.162-12.359-45.366-50.515-81.408-96.458-91.114-22.979-4.8547-45.101-3.6026-67.459 3.8182-67.122 22.278-103.61 95.091-81.207 162.06 14.257 42.62 49.885 74.724 93.796 84.521 14.096 3.145 24.606 3.8907 38.056 2.7004z" />
		<g>
			<rect x="171.05" y="140.76" width="41.42" height="123.49"/>
			<rect x="238.35" y="111.61" width="41.42" height="151.87"/>
			<rect x="306.05" y="164.73" width="41.42" height="98.947"/>
		</g>
	</g>
</svg>
